X: 34008
T: Reel Béatrice
R: reel
M: 4/4
K: Aminor
AB|:c2Ac e2ce|aeec e2AB|c2Ac e2ce|aeed e2ab|
c'bag gedc|B2d2 d3f|e^def e=dcB|1 A2AA A2AB:|2 A2AA A2a^g||
|:a2ga b2a2|ge^de a2g2|e2 ^de feed|cdcB A2A2|
a2ga b2a2|ge^de a2 g2|e^def e=dcB|1 A2AA A2a^g:|2 A2AA A2GB||
|:c2G2 EGce|c2G2 EGce|d2B2 GBdB|ceba geed|
c2G2 EGce|c2G2 EGce|d2B2 GBdB|1 cBcd c2GB:|2 cBcd c2AB||

